X:133
M:4/4
L:1/4
K:F
F F G F | E3/2 D/ D2 | D F E D | G F E2 | E A c A | c B A2 | !sintro!A A A F | E2 D2 !eintro!|]
